X:1
T:Title
%%score { 1 | 2 }
L:1/8
M:4/4
K:F
V:1 treble nm="Grand Piano"
V:2 bass 
V:1
 z4 z2[Q:1/4=100] A2 | c3 B AG F>G | A6 F2 | [EG]3 G F2 G2 |[M:3/4] A6 |[M:1/4] A2 | %6
[M:4/4] c3 B AG F>G | A6 F2 | G3 G [FA]2 [EG]2 |[M:3/4] F6 |[M:1/4] F2 | %11
[M:4/4] [DF]>[DB] [DB]4 [DB]2 | A>c c4 A2 | [CAc]3 [CFA] [CF][CF] [CEG]>[CFA] |[M:3/4] [CEG]6 | %15
[M:1/4] [CFA]2 |[M:4/4] [FAc]3 [Fcf] [Fce][FBd] [Ac]>[Bd] | [Ac]6 [FA]2 | %18
 [Fc]3 [Fd] [Fc][FA] [EG]>F |[M:3/4] F6 |] %20
V:2
 z4 z2 [F,CF]2 | [F,A,F]3 [F,DF] [F,CF][F,B,F] [F,A,]>[F,B,F] | [F,CF]6 [F,A,]2 | %3
 [C,C]3 [B,CE] [A,C]2 [G,CE]2 |[M:3/4] [F,CF]6 |[M:1/4] [F,CF]2 | %6
[M:4/4] [F,A,F]3 [F,DF] [F,CF][F,B,F] [F,A,]>[F,B,F] | [F,CF]6 [F,A,]2 | %8
 [CE]3 [CE] [C,C]2 [C,B,]2 |[M:3/4] [F,A,]6 |[M:1/4] [F,A,_E]2 | %11
[M:4/4] [B,,B,]>[B,,B,] [B,,B,]4 [B,,F,]2 | [F,C]>[F,A,F] [F,A,F]4 [F,CF]2 | F,3 C, A,,A,, C,>C, | %14
[M:3/4] C,6 |[M:1/4] F,2 |[M:4/4] F,3 A, B,B, [F,F]>[F,F] | [F,F]6 [F,C]2 | %18
 [F,A,]3 [B,,B,] [C,A,][C,C] [C,B,]>[F,A,] |[M:3/4] [F,A,]6 |] %20

